X: 37849
T: Soporific, The
R: hornpipe
M: 4/4
K: Dmajor
|:FG|[DA]BAF GEvCuE|DFAF ~G2FE|FuA(3Bcd BGED|vCA,CuE ~A2vGE|
FuAvFE EFEC|DFAB vGE~E2|FD~D2 DEFG|EDvCuE D2:|
|:vCB,|A,B,CuE ABcA|vFuddc d~d2a|(3Bcd BF Adef|eBdc (3ABc BA|
vFEFuA dAvFuA|vGuABd BAvFE|FD~D2 DEFG|EDvCuE [D2A2]:|

